src/assets/icons/payments/profit.svg

<svg width="20" height="20" viewBox="0 0 20 20" fill="none" xmlns="http://www.w3.org/2000/svg">
  <path fill-rule="evenodd" clip-rule="evenodd" d="M10.052 0h-.104C9.049 0 8.3 4e-8 7.706.0771085 7.078.158072 6.511.337349 6.056.775904c-.456.439516-.642.986026-.726 1.590366-.057.41156-.074 1.39373-.078 2.23614-2.022.06458-3.237.29205-4.08 1.10554C-1.2e-7 6.83663 0 8.65446 0 12.2892c0 3.6347-1.2e-7 5.4525 1.172 6.5812C2.343 20 4.229 20 8 20h4c3.771 0 5.657 0 6.828-1.1296C20 17.7417 20 15.9239 20 12.2892c0-3.63474 0-5.45257-1.172-6.58125-.843-.81349-2.058-1.04096-4.08-1.10458-.004-.84337-.02-1.82554-.078-2.23614-.084-.6053-.27-1.15181-.726-1.590362-.455-.439519-1.022-.618796-1.65-.6997595C11.7 4e-8 10.95 0 10.052 0Zm3.196 4.58024c-.005-.81638-.019-1.69446-.064-2.0212-.063-.44434-.17-.63518-.3-.76049-.13-.1253-.328-.22843-.79-.28915-.482-.06169-1.13-.06362-2.094-.06362s-1.612.00193-2.095.06458c-.461.05976-.659.16289-.789.28916-.13.1253-.237.31518-.3.75952-.045.32771-.06 1.20482-.064 2.0212.391-.00193.808-.00193 1.248-.00193h4c.441 0 .857 0 1.248.00193ZM10 7.71084c.1989 0 .3897.07617.5303.21173.1407.13557.2197.31944.2197.51116v.00964c1.089.2641 2 1.09205 2 2.23903 0 .1917-.079.3756-.2197.5112-.1406.1355-.3314.2117-.5303.2117-.1989 0-.3897-.0762-.5303-.2117-.1407-.1356-.2197-.3195-.2197-.5112 0-.3701-.426-.88288-1.25-.88288-.824 0-1.25.51278-1.25.88288s.426.8839 1.25.8839c1.385 0 2.75.9253 2.75 2.3296 0 1.147-.911 1.974-2 2.239v.0097c0 .1917-.079.3756-.2197.5111-.1406.1356-.3314.2118-.5303.2118-.19891 0-.38968-.0762-.53033-.2118-.14065-.1355-.21967-.3194-.21967-.5111v-.0097c-1.089-.2641-2-1.092-2-2.239 0-.1917.07902-.3756.21967-.5112.14065-.1355.33142-.2117.53033-.2117.19891 0 .38968.0762.53033.2117.14065.1356.21967.3195.21967.5112 0 .3701.426.8829 1.25.8829.824 0 1.25-.5128 1.25-.8829s-.426-.8839-1.25-.8839c-1.385 0-2.75-.9253-2.75-2.3296 0-1.14698.911-1.97493 2-2.23903v-.00964c0-.19172.07902-.37559.21967-.51116.14065-.13556.33142-.21173.53033-.21173Z" fill="#9EA8DD"/>
</svg>

<svg width="20" height="20" viewBox="0 0 20 20" fill="none" xmlns="http://www.w3.org/2000/svg">
<path fill-rule="evenodd" clip-rule="evenodd" d="M10.052 0H9.948C9.049 0 8.3 4.30877e-08 7.706 0.0771085C7.078 0.158072 6.511 0.337349 6.056 0.775904C5.6 1.21542 5.414 1.76193 5.33 2.36627C5.273 2.77783 5.256 3.76 5.252 4.60241C3.23 4.66699 2.015 4.89446 1.172 5.70795C-1.19209e-07 6.83663 0 8.65446 0 12.2892C0 15.9239 -1.19209e-07 17.7417 1.172 18.8704C2.343 20 4.229 20 8 20H12C15.771 20 17.657 20 18.828 18.8704C20 17.7417 20 15.9239 20 12.2892C20 8.65446 20 6.83663 18.828 5.70795C17.985 4.89446 16.77 4.66699 14.748 4.60337C14.744 3.76 14.728 2.77783 14.67 2.36723C14.586 1.76193 14.4 1.21542 13.944 0.776868C13.489 0.337349 12.922 0.158072 12.294 0.0771085C11.7 4.30877e-08 10.95 0 10.052 0ZM13.248 4.58024C13.243 3.76386 13.229 2.88578 13.184 2.55904C13.121 2.1147 13.014 1.92386 12.884 1.79855C12.754 1.67325 12.556 1.57012 12.094 1.5094C11.612 1.44771 10.964 1.44578 10 1.44578C9.036 1.44578 8.388 1.44771 7.905 1.51036C7.444 1.57012 7.246 1.67325 7.116 1.79952C6.986 1.92482 6.879 2.1147 6.816 2.55904C6.771 2.88675 6.756 3.76386 6.752 4.58024C7.143 4.57831 7.56 4.57831 8 4.57831H12C12.441 4.57831 12.857 4.57831 13.248 4.58024ZM10 7.71084C10.1989 7.71084 10.3897 7.78701 10.5303 7.92257C10.671 8.05814 10.75 8.24201 10.75 8.43373V8.44337C11.839 8.70747 12.75 9.53542 12.75 10.6824C12.75 10.8741 12.671 11.058 12.5303 11.1936C12.3897 11.3291 12.1989 11.4053 12 11.4053C11.8011 11.4053 11.6103 11.3291 11.4697 11.1936C11.329 11.058 11.25 10.8741 11.25 10.6824C11.25 10.3123 10.824 9.79952 10 9.79952C9.176 9.79952 8.75 10.3123 8.75 10.6824C8.75 11.0525 9.176 11.5663 10 11.5663C11.385 11.5663 12.75 12.4916 12.75 13.8959C12.75 15.0429 11.839 15.8699 10.75 16.1349V16.1446C10.75 16.3363 10.671 16.5202 10.5303 16.6557C10.3897 16.7913 10.1989 16.8675 10 16.8675C9.80109 16.8675 9.61032 16.7913 9.46967 16.6557C9.32902 16.5202 9.25 16.3363 9.25 16.1446V16.1349C8.161 15.8708 7.25 15.0429 7.25 13.8959C7.25 13.7042 7.32902 13.5203 7.46967 13.3847C7.61032 13.2492 7.80109 13.173 8 13.173C8.19891 13.173 8.38968 13.2492 8.53033 13.3847C8.67098 13.5203 8.75 13.7042 8.75 13.8959C8.75 14.266 9.176 14.7788 10 14.7788C10.824 14.7788 11.25 14.266 11.25 13.8959C11.25 13.5258 10.824 13.012 10 13.012C8.615 13.012 7.25 12.0867 7.25 10.6824C7.25 9.53542 8.161 8.70747 9.25 8.44337V8.43373C9.25 8.24201 9.32902 8.05814 9.46967 7.92257C9.61032 7.78701 9.80109 7.71084 10 7.71084Z" fill="#9EA8DD"/>
</svg>
